packages/web/app/assets/images/double_up.svg

<svg fill="none" height="13" viewBox="0 0 12 13" width="12" xmlns="http://www.w3.org/2000/svg"><g fill="#326699"><path d="m10.59 13-4.59-4.43997-4.59 4.43997-1.40999988-1.3669 5.99999988-5.81655 6 5.81655z"/><path d="m10.59 7.18372-4.59-4.43998-4.59 4.43997-1.40999988-1.36689 5.99999988-5.81655016 6 5.81656016z"/></g></svg>

<svg width="12" height="13" viewBox="0 0 12 13" fill="none" xmlns="http://www.w3.org/2000/svg">
<path d="M10.59 13L6 8.56003L1.41 13L1.19497e-07 11.6331L6 5.81655L12 11.6331L10.59 13Z" fill="#326699"/>
<path d="M10.59 7.18372L6 2.74374L1.41 7.18371L1.19497e-07 5.81682L6 0.000269843L12 5.81683L10.59 7.18372Z" fill="#326699"/>
</svg>
